X:70
T:Moon & Seven Stars, The
M:6/8
L:1/8
R:Jig
K:D
|:"D"d2A AGF|"G"GAB "D"A2A|"G"Bcd efg|"D"fed "A"cBA|!
"D"d2A A2F|"G"GAB "D"A2A|"G"Bcd efg|1"A"Adc "D"d2A:|2"A"Adc "D"d3|!
|:"A"e2A A2f|"Em"efg "A"~f2z|"Em"efg "A"fed|"G"cde "D"A2A|!
"G"BGB "D"A2A|"G"BGB "D"A2A|"G"Bcd efg|1"A"Adc "D"dcd:|2"A"Adc "D"d3|

